X:1
T:Gott sei Dank durch alle Welt
T:Hugo Distler
T:Heinrich Held (1620 - 1659)
T:8.  Thanks to God Throughout the World Gott sei Dank durch alle Welt
T:Bärenreiter
T:Bärenreiter
T:Bärenreiter
T:Bärenreiter
T:Bärenreiter
T:Bärenreiter
T:Bärenreiter
T:Bärenreiter
T:Bärenreiter
T:Bärenreiter
T:Bärenreiter
C:Hugo Distler
Z:Heinrich Held
Z:(1620 - 1659)
Z:Bärenreiter
%%score [ 1 2 3 ]
L:1/8
Q:1/4=132
M:2/1
K:F
V:1 treble nm="Sop."
V:2 treble nm="Alto"
V:3 bass nm="Bar."
V:1
 z8 d6 d2 | (f6 e2 d2 c2 B4) | c4 d6 e2 f4- | !breath!f2 c2 (d6 cB) c4 | !breath!d8 d2 d2 _e4- | %5
w: 1.  Thanks to|God _ _ _ _|through- out the world,|_ through- out _ _ the|world, who His Word,|
w: 4.  Now be|wel- * * * *|come, Sav- ior, Lord,|_ now be _ _ wel-|come, Sav- ior, Lord,|
w: 7.  Com- fort,|com- * * * *|fort my poor mind,|_ O my _ _ poor|mind, I am blind,|
 !breath!e4 c2 c2 (d3 _e f2 g2- | g2) f2 _e2 e2 !breath!d8 | d6 =e2 ^f8 | g4 (e6 d2) c4 | %9
w: _ who His Word _ _ _|_ un- chang- ing holds,|and to sin-|ners has _ been|
w: _ ho- si- an- * * *|* na, praise to God.|Make the high-|way straight _ for|
w: _ I am fool- * * *|* ish, I am blind,|and by Sa-|ten's cun- * ning|
 !breath!d8 d6 d2 | (f6 e2 d2 c2 B4) | c4 (d6 e2) f4- | !breath!f2 c2 (d6 cB c4) | d16 || %14
w: sent com- fort,|coun- * * * *|sel, coun- * sel|_ to ex- * * *|tend.|
w: You, come in-|to _ _ _ _|my heart a- new,|_ my heart _ _ a-|new.|
w: craft I may|be _ _ _ _|de- ceived at last,|_ de- ceived _ _ at|last.|
 z8 d6 d2 | (f6 e2 d2 c2 B4) | c4 d6 e2 f4- | !breath!f2 c2 (d6 cB) c4 | !breath!d8 d2 d2 _e4- | %19
w: 2.  What the|saints _ _ _ _|of long a- go,|_ of long _ _ a-|go, most de- sired,|
w: 5.  En- ter,|O _ _ _ _|ma- jes- tic King,|_ ma- jes- * * tic|King, all my heart,|
w: 8.  Tread up-|on _ _ _ _|the ser- pent's head,|_ the ser- * * pent's|head so that I,|
 !breath!e4 c2 c2 (d3 _e f2 g2- | g2) f2 _e2 e2 !breath!d8 | d6 =e2 ^f8 | g4 (e6 d2) c4 | %23
w: _ most de- sired _ _ _|_ and longed to hold,|what their proph-|e- sies _ in-|
w: _ all my heart _ _ _|_ be- longs to You;|mold me, fash-|ion as _ You|
w: _ so that I _ _ _|_ be free from dread,|that with faith|a- round, _ a-|
 !breath!d8 d6 d2 | (f6 e2 d2 c2 B4) | c4 d6 e2 f4- | !breath!f2 c2 (d6 cB) c4 | d16 || z8 d6 d2 | %29
w: stilled now is|glo- * * * *|rious- ly ful- filled,|_ is now _ _ ful-|filled.|3  Zi- on's|
w: will, pure and|free _ _ _ _|from sin and guilt,|_ from sin _ _ and|guilt.|6. And, as|
w: bove, I may|live _ _ _ _|with- in Your love,|_ with- in _ _ Your|love.|9.  That, when|
 (f6 e2 d2 c2 B4) | c4 d6 e2 f4- | !breath!f2 c2 (d6 cB) c4 | !breath!d8 d2 d2 _e4- | %33
w: help _ _ _ _|to A- bra'm giv'n,|_ to A- * * bra'm|giv'n, Ja- cob's health,|
w: at _ _ _ _|Your Ad- vent here,|_ at Ad- * * vent|here, with- out fear,|
w: You, _ _ _ _|O Prince of Life,|_ O Prince _ _ of|Life, come a- gain,|
 !breath!e4 c2 c2 (d3 _e f2 g2- | g2) f2 _e2 e2 !breath!d8 | d6 =e2 ^f8 | g4 (e6 d2) c4 | %37
w: _ Ja- cob's health, _ _ _|_ the Vir- gin's Son,|who by dou-|ble lin- * eage|
w: _ filled with meek- * * *|* ness, with- out fear,|may Your meek-|ness ev- * er|
w: _ come a- gain _ _ _|_ in splen- dor bright,|I may meet|You face _ to|
 !breath!d8 d6 d2 | (f6 e2 d2 c2 B4) | c4 d6 e2 f4- | !breath!f2 c2 (d6 cB) c4 | d16 |] %42
w: blessed, tru- ly|does _ _ _ _|Him- self en- list,|_ Him- self _ _ en-|list.|
w: be of- fered|as _ _ _ _|Your gift to me,|_ Your gift _ _ to|me.|
w: face, take in|right- * * * *|eous- ness my place,|_ may take _ _ my|place.|
V:2
 G8 G4 F4- | !breath!F4 (B6 A2 G2 F2 | G4) D4 A6 B2 | (c6 B2 A4) G4 | %4
w: 1.  Thanks to God,|_ thanks _ _ _|_ to God through-|out _ _ the|
w: 4.  Now wel- come,|_ now _ _ _|_ be wel- come,|Sav- * * ior,|
w: 7.  Com- fort, then,|_ com- * * *|* fort, com- fort|my _ _ poor|
 !breath!A4 B2 B2 !breath!G4 (B4- | B2 AG) A4 B4 d4 | (_e2 d2 c2 B2 A4) G4 | !breath!A8 A2 A2 d4 | %8
w: world, who His Word, who|_ _ _ His Word un-|chang- * * * * ing|holds, and to sin-|
w: Lord, Sav- ior, Lord, ho-|* * * si- an- na,|praise _ _ _ _ to|God. Make the high-|
w: mind, I am blind, I|_ _ _ am fool- ish,|I _ _ _ _ am|blind, and by Sa-|
 d4 G2 G2 !breath!c8 | (B6 A2) (G4 F4- | !breath!F4) (B6 A2 G2 F2 | G4) D4 A6 B2 | %12
w: ners has been sent|com- * fort, _|_ com- * * *|* fort, coun- sel|
w: way straight for You,|come, _ come, _|_ come _ _ _|_ in- to my|
w: tan's cun- ning craft,|cun- * ning craft,|_ I _ _ _|_ may be de-|
 (c6 B2 A4) (G2 A2) | =B16 || G8 G4 F4- | !breath!F4 (B6 A2 G2 F2 | G4) D4 A6 B2 | (c6 B2 A4) G4 | %18
w: to _ _ ex- *|tend|2.  What the saints,|_ what _ _ _|_ the saints of|long _ _ a-|
w: heart _ _ a- *|new.|5.  O en- ter,|_ en- * * *|* ter in, ma-|jes- * * tic|
w: ceived _ _ at _|last.|8.  Tread up- on,|_ tread- * * *|* up- on the|ser- * * pent's|
 !breath!A4 B2 B2 !breath!G4 (B4- | B2 AG) A4 B4 d4 | (_e2 d2 c2 B2 A4) G4 | !breath!A8 A2 A2 d4 | %22
w: go most de- sired, most|_ _ _ de- sired and|longed _ _ _ _ to|hold, what their proph-|
w: King, all my heart, all|_ _ _ my heart be-|longs _ _ _ _ to|You; mold me, fash-|
w: head, so that I, so|_ _ _ that I be|free _ _ _ _ from|dread, that with faith|
 d4 G2 G2 !breath!c8 | (B6 A2) (G4 F4- | F4) (B6 A2 G2 F2 | G4) D4 A6 B2 | (c6 B2 A4) (G2 A2) | %27
w: e- sies in- stilled|now _ is _|_ glo- * * *|* rious- ly ful-|filled, _ _ ful- *|
w: ion as You will,|pure _ and _|_ free _ _ _|_ from sin, from|sin _ _ and _|
w: a- round, a- bove,|I _ may _|_ live _ _ _|_ with- in, with-|in _ _ Your _|
 =B16 || G8 G4 F4- | !breath!F4 (B6 A2 G2 F2 | G4) D4 A6 B2 | (c6 B2 A4) G4 | %32
w: filled.|3.  Zi- on's help,|_ Zi- * * *|* on's help to|A- * * bra'm|
w: guilt.|6.  As You came,|_ and _ _ _|_ as at Your|Ad- * * vent|
w: love.|9.  That, when You,|_ that _ _ _|_ when You, O|Prince _ _ of|
 !breath!A4 B2 B2 !breath!G4 (B4- | B2 AG) A4 B4 d4 | (_e2 d2 c2 B2 A4) G4 | !breath!A8 A2 A2 d4 | %36
w: giv'n, Ja- cob's health, Ja-|* * * cob's health, the|Vir- * * * * gin's|Son, who by dou-|
w: here, meek and mild, filled|_ _ _ with meek- ness,|with- * * * * out|fear, may Your meek-|
w: Life, come a- gain, come|_ _ _ a- gain in|splen- * * * * dor|bright, I may meet|
 d4 G2 G2 !breath!c8 | (B6 A2) (G4 F4- | F4) (B6 A2 G2 F2 | G4) D4 A6 B2 | (c6 B2 A4) (G2 A2) | %41
w: ble lin- eage blessed,|tru- * ly _|_ does _ _ _|_ Him- self, Him-|self _ _ en- *|
w: ness ev- er be|of- * fered _|_ as _ _ _|_ Your gift, Your|gift _ _ to _|
w: You face to face|and _ take, _|_ take _ _ _|_ in right- eous-|ness _ _ my _|
 =B16 |] %42
w: list.|
w: me.|
w: place.|
V:3
 z16 | z8 G,8 | G,4 F,8 B,4 | (A,6 G,2 F,4) _E,4 | G,8 z4 G,2 G,2 | C8 B,8 | C12 C4 | %7
w: |1.  Thanks|to God through-|out _ _ the|world, who His|Word un-|chang- ing|
w: |4.  Now|be wel- come,|Sav- * * ior,|Lord, ho- si-|an- na,|praise to|
w: |7.  Com-|fort, com- fort|my _ _ poor|mind, I am|fool- ish,|I am|
 !breath!B,4 B,2 B,2 D8 | =B,4 (C6 _B,2) A,4 | G,8 z8 | z8 G,8 | G,4 F,8 B,4 | (A,6 G,2 F,4) _E,4 | %13
w: holds, and to sin-|ners has _ been|sent|com-|fort, coun- sel|to _ _ ex-|
w: God. Make the high-|way straight _ for|You,|come|in- to my|heart _ _ a-|
w: blind, and by Sa-|tan's cun- * ning|craft|I|my be de-|ceived _ _ at|
 G,16 || z16 | z8 G,8 | G,4 F,8 B,4 | (A,6 G,2 F,4) _E,4 | G,8 z4 G,2 G,2 | C8 B,8 | C12 C4 | %21
w: tend||2.  What|the saints of|long _ _ a-|go most de-|dsired and|longed to|
w: new.||5.  En-|ter, O ma-|jes- * * tic|King, all my|heart be-|longs to|
w: last.||8.  Tread|up- on the|ser- * * pent's|head so that|I be|free from|
 !breath!B,4 B,2 B,2 D8 | =B,4 (C6 _B,2) A,4 | G,8 z8 | z8 G,8 | G,4 F,8 B,4 | (A,6 G,2 F,4) _E,4 | %27
w: hold, what their proph-|e- sies _ in-|stilled|now|is glo- rious-|ly _ _ ful-|
w: You; mold me, fash-|ion as _ You|will,|pure|and free from|sin _ _ and|
w: dread, that with faith|a- round, _ a-|bove,|I|may live with-|in _ _ Your|
 G,16 || z16 | z8 G,8 | G,4 F,8 B,4 | (A,6 G,2 F,4) _E,4 | G,8 z4 G,2 G,2 | C8 B,8 | C12 C4 | %35
w: filled.||3.  Zi-|on's help to|A- * * bra'm|giv'n, Ja- cob's|health, the|Vir- gin's|
w: guilt.||6.  And|as at Your|Ad- * * vent|here, filled with|meek- ness,|with- out|
w: love.||9.  That,|when You, O|Prince _ _ of|Life, come a-|gain in|splen- dor|
 !breath!B,4 B,2 B,2 D8 | =B,4 (C6 _B,2) A,4 | G,8 z8 | z8 G,8 | G,4 F,8 B,4 | (A,6 G,2 F,4) _E,4 | %41
w: Son, who by dou-|ble lin- * eage|blessed,|tru-|ly does Him-|self _ _ en-|
w: fear, may Your meek-|ness ev- * er|be|of-|fered as Your|gift _ _ to|
w: bright, I may meet|You face _ to|face,|take|in right- eous-|ness _ _ my|
 G,16 |] %42
w: list.|
w: me.|
w: place.|

